images/PERP.svg

<svg height="250" viewBox="0 0 250 250" width="250" xmlns="http://www.w3.org/2000/svg"><g fill="#3ceaaa"><path d="m75.722656 111.070312c-3.726562-3.933593-9.773437-3.933593-13.503906 0-3.730469 3.933594-3.730469 10.3125 0 14.246094l55.855469 58.917969 13.507812-14.246094zm0 0"/><path d="m118.496094 80.203125c3.730468-3.933594 3.730468-10.3125 0-14.246094-3.730469-3.9375-9.777344-3.9375-13.507813 0l-42.769531 45.113281c-3.730469 3.933594-3.730469 10.3125 0 14.246094s9.777344 3.933594 13.507812 0zm0 0"/><path d="m145.507812 108.695312c3.730469-3.933593 3.730469-10.3125 0-14.246093l-27.011718-28.492188c-3.730469-3.933593-9.777344-3.933593-13.507813 0-3.730469 3.933594-3.730469 10.3125 0 14.246094l27.015625 28.492187c3.726563 3.933594 9.773438 3.933594 13.503906 0zm0 0"/><path d="m145.507812 108.695312c3.730469-3.933593 3.730469-10.3125 0-14.246093-3.730468-3.933594-9.777343-3.933594-13.507812 0l-42.769531 45.113281c-3.730469 3.933594-3.730469 10.3125 0 14.246094 3.730469 3.9375 9.777343 3.9375 13.507812 0zm0 0"/></g><path d="m174.371094 111.070312c3.726562-3.933593 9.773437-3.933593 13.503906 0 3.730469 3.933594 3.730469 10.3125 0 14.246094l-55.976562 59.046875-13.507813-14.246093zm0 0" fill="#1a5d73"/><path d="m131.597656 80.203125c-3.730468-3.933594-3.730468-10.3125 0-14.246094 3.730469-3.9375 9.777344-3.9375 13.507813 0l42.769531 45.113281c3.730469 3.933594 3.730469 10.3125 0 14.246094s-9.777344 3.933594-13.507812 0zm0 0" fill="#1a5d73"/><path d="m104.582031 108.695312c-3.726562-3.933593-3.726562-10.3125 0-14.246093l27.015625-28.492188c3.730469-3.933593 9.777344-3.933593 13.503906 0 3.730469 3.933594 3.730469 10.3125 0 14.246094l-27.011718 28.492187c-3.730469 3.933594-9.777344 3.933594-13.507813 0zm0 0" fill="#1a5d73"/><path d="m104.585938 108.695312c-3.730469-3.933593-3.730469-10.3125 0-14.246093 3.726562-3.933594 9.773437-3.933594 13.503906 0l42.773437 45.113281c3.726563 3.933594 3.726563 10.3125 0 14.25-3.730469 3.933594-9.777343 3.933594-13.507812 0zm0 0" fill="#1a5d73"/><path d="m110.269531 86.164062 13.488281-14.230468 21.761719 22.957031-13.488281 14.230469zm0 0" fill="#3ceaaa"/><path d="m134.578125 177.417969c0 5.5625-4.277344 10.074219-9.550781 10.074219-5.277344 0-9.550782-4.511719-9.550782-10.074219s4.273438-10.074219 9.550782-10.074219c5.273437 0 9.550781 4.511719 9.550781 10.074219zm0 0" fill="#1a5d73"/></svg>

<svg xmlns="http://www.w3.org/2000/svg" xmlns:xlink="http://www.w3.org/1999/xlink" width="250px" height="250px" viewBox="0 0 250 250" version="1.1">
<g id="surface1">
<path style=" stroke:none;fill-rule:nonzero;fill:rgb(23.529412%,91.764706%,66.666669%);fill-opacity:1;" d="M 75.722656 111.070312 C 71.996094 107.136719 65.949219 107.136719 62.21875 111.070312 C 58.488281 115.003906 58.488281 121.382812 62.21875 125.316406 L 118.074219 184.234375 L 131.582031 169.988281 Z M 75.722656 111.070312 "/>
<path style=" stroke:none;fill-rule:nonzero;fill:rgb(23.529412%,91.764706%,66.666669%);fill-opacity:1;" d="M 118.496094 80.203125 C 122.226562 76.269531 122.226562 69.890625 118.496094 65.957031 C 114.765625 62.019531 108.71875 62.019531 104.988281 65.957031 L 62.21875 111.070312 C 58.488281 115.003906 58.488281 121.382812 62.21875 125.316406 C 65.949219 129.25 71.996094 129.25 75.726562 125.316406 Z M 118.496094 80.203125 "/>
<path style=" stroke:none;fill-rule:nonzero;fill:rgb(23.529412%,91.764706%,66.666669%);fill-opacity:1;" d="M 145.507812 108.695312 C 149.238281 104.761719 149.238281 98.382812 145.507812 94.449219 L 118.496094 65.957031 C 114.765625 62.023438 108.71875 62.023438 104.988281 65.957031 C 101.257812 69.890625 101.257812 76.269531 104.988281 80.203125 L 132.003906 108.695312 C 135.730469 112.628906 141.777344 112.628906 145.507812 108.695312 Z M 145.507812 108.695312 "/>
<path style=" stroke:none;fill-rule:nonzero;fill:rgb(23.529412%,91.764706%,66.666669%);fill-opacity:1;" d="M 145.507812 108.695312 C 149.238281 104.761719 149.238281 98.382812 145.507812 94.449219 C 141.777344 90.515625 135.730469 90.515625 132 94.449219 L 89.230469 139.5625 C 85.5 143.496094 85.5 149.875 89.230469 153.808594 C 92.960938 157.746094 99.007812 157.746094 102.738281 153.808594 Z M 145.507812 108.695312 "/>
<path style=" stroke:none;fill-rule:nonzero;fill:rgb(10.196079%,36.470589%,45.09804%);fill-opacity:1;" d="M 174.371094 111.070312 C 178.097656 107.136719 184.144531 107.136719 187.875 111.070312 C 191.605469 115.003906 191.605469 121.382812 187.875 125.316406 L 131.898438 184.363281 L 118.390625 170.117188 Z M 174.371094 111.070312 "/>
<path style=" stroke:none;fill-rule:nonzero;fill:rgb(10.196079%,36.470589%,45.09804%);fill-opacity:1;" d="M 131.597656 80.203125 C 127.867188 76.269531 127.867188 69.890625 131.597656 65.957031 C 135.328125 62.019531 141.375 62.019531 145.105469 65.957031 L 187.875 111.070312 C 191.605469 115.003906 191.605469 121.382812 187.875 125.316406 C 184.144531 129.25 178.097656 129.25 174.367188 125.316406 Z M 131.597656 80.203125 "/>
<path style=" stroke:none;fill-rule:nonzero;fill:rgb(10.196079%,36.470589%,45.09804%);fill-opacity:1;" d="M 104.582031 108.695312 C 100.855469 104.761719 100.855469 98.382812 104.582031 94.449219 L 131.597656 65.957031 C 135.328125 62.023438 141.375 62.023438 145.101562 65.957031 C 148.832031 69.890625 148.832031 76.269531 145.101562 80.203125 L 118.089844 108.695312 C 114.359375 112.628906 108.3125 112.628906 104.582031 108.695312 Z M 104.582031 108.695312 "/>
<path style=" stroke:none;fill-rule:nonzero;fill:rgb(10.196079%,36.470589%,45.09804%);fill-opacity:1;" d="M 104.585938 108.695312 C 100.855469 104.761719 100.855469 98.382812 104.585938 94.449219 C 108.3125 90.515625 114.359375 90.515625 118.089844 94.449219 L 160.863281 139.5625 C 164.589844 143.496094 164.589844 149.875 160.863281 153.8125 C 157.132812 157.746094 151.085938 157.746094 147.355469 153.8125 Z M 104.585938 108.695312 "/>
<path style=" stroke:none;fill-rule:nonzero;fill:rgb(23.529412%,91.764706%,66.666669%);fill-opacity:1;" d="M 110.269531 86.164062 L 123.757812 71.933594 L 145.519531 94.890625 L 132.03125 109.121094 Z M 110.269531 86.164062 "/>
<path style=" stroke:none;fill-rule:nonzero;fill:rgb(10.196079%,36.470589%,45.09804%);fill-opacity:1;" d="M 134.578125 177.417969 C 134.578125 182.980469 130.300781 187.492188 125.027344 187.492188 C 119.75 187.492188 115.476562 182.980469 115.476562 177.417969 C 115.476562 171.855469 119.75 167.34375 125.027344 167.34375 C 130.300781 167.34375 134.578125 171.855469 134.578125 177.417969 Z M 134.578125 177.417969 "/>
</g>
</svg>
